X: 1756
T: Applesauce Quickstep, The
R: slide
M: 12/8
K: Dmajor
f2 g|a^ga bag afd AGA|B^AB e2 g B3- B2 e/d/|
c2 a a^ga c2 a a2 g|a^ga ba=g f3- f2 g|
a^ga b2 a afd A2 ^A|B^AB e2 g B3- B2 e/d/|
c2 a a^ga c2 a a2 a|gec ABc d3- d2||
F/G/|A2 d dcd A2 d d2 F|GFG B^AB E3- E2 e/d/|
c2 a a^ga c2 a a2 f|gec ABc dcB A^G=G|
F2 d dcd F2 d d2 F|GFG B^AB E2 B e2 d|
c2 a a^ga c2 a a2 a|c'c'/b/a gfe d3||

